projects/seb-pictograms/svg/regular/49-Picto-Regular_black.svg

<svg xmlns="http://www.w3.org/2000/svg" viewBox="0 0 170 170"><path d="M143.9 36.3H26.1a11.6 11.6 0 00-11.6 11.6V122a11.6 11.6 0 0011.6 11.6h117.8a11.6 11.6 0 0011.6-11.6V47.9a11.6 11.6 0 00-11.6-11.6zm-117.8 6h117.8a5.6 5.6 0 015.6 5.6v9.2h-129v-9.2a5.6 5.6 0 015.6-5.6zm117.8 85.4H26.1a5.6 5.6 0 01-5.6-5.6v-59h129V122a5.6 5.6 0 01-5.6 5.7z"/><path d="M114 104.5h18.9v6H114zm-78.7 0h18.9v6H35.3zm0-17.2h38v6h-38z"/></svg>

<svg id="PIKTO_REGULAR" xmlns="http://www.w3.org/2000/svg" viewBox="0 0 170 170"><title>regular_black</title><path d="M143.9,36.3H26.1A11.6,11.6,0,0,0,14.5,47.9v74.1a11.6,11.6,0,0,0,11.6,11.6H143.9a11.6,11.6,0,0,0,11.6-11.6V47.9A11.6,11.6,0,0,0,143.9,36.3Zm-117.8,6H143.9a5.6,5.6,0,0,1,5.6,5.6v9.2H20.5V47.9A5.6,5.6,0,0,1,26.1,42.3Zm117.8,85.4H26.1a5.6,5.6,0,0,1-5.6-5.6V63.1h129v58.9A5.6,5.6,0,0,1,143.9,127.7Z"/><rect x="114" y="104.5" width="18.9" height="6"/><rect x="35.3" y="104.5" width="18.9" height="6"/><rect x="35.3" y="87.3" width="38" height="6"/></svg>
